22x22/apps/accessories-clock.svg

<svg xmlns="http://www.w3.org/2000/svg" width="22" height="22" version="1.1">
 <path style="opacity:0.2" d="M 11,1.5000002 C 5.4823465,1.5000002 1,5.982345 1,11.5 c 0,5.517655 4.4823465,10.000001 10,10 5.517654,0 10.000005,-4.482345 10,-10 C 21,5.982345 16.517654,1.5000002 11,1.5000002 Z"/>
 <path style="fill:#4f4f4f" d="M 11,1.0000002 C 5.4823465,1.0000002 1,5.482345 1,11 1,16.517655 5.4823465,21.000001 11,21 16.517654,21 21.000005,16.517655 21,11 21,5.482345 16.517654,1.0000002 11,1.0000002 Z"/>
 <path style="opacity:0.1;fill:#f4f4f7" d="M 11,1 C 5.4823465,1 1,5.482345 1,11 1,11.08392 1.0038,11.166575 1.00586,11.25 1.1393415,5.8480585 5.5662625,1.5 11,1.5 c 5.433737,0 9.860658,4.3480585 9.99414,9.75 C 20.996202,11.166575 21,11.083916 21,11 21,5.482345 16.517654,1 11,1 Z"/>
 <path style="opacity:0.2" d="M 11.000001,3.5 C 6.585876,3.5 3,7.0858755 3,11.5 c 0,4.414124 3.585876,8.000001 8.000001,8 4.414123,0 8.000002,-3.585876 7.999999,-8 0,-4.4141245 -3.585876,-8 -7.999999,-8 z"/>
 <path style="fill:#ef8a24" d="M 11.000001,3 C 6.585876,3 3,6.5858755 3,11 3,15.414124 6.585876,19.000001 11.000001,19 15.414124,19 19.000003,15.414124 19,11 19,6.5858755 15.414124,3 11.000001,3 Z"/>
 <path style="opacity:0.1;fill:#f4f4f7" d="M 11,3 C 6.5858755,3 3,6.585876 3,11 3,11.08438 3.010094,11.166242 3.012696,11.25 3.1461845,6.952308 6.670258,3.5 11,3.5 c 4.329741,0 7.853815,3.452308 7.987304,7.75 C 18.989906,11.166242 19,11.084383 19,11 19,6.585876 15.414123,3 11,3 Z"/>
 <path style="opacity:0.2" d="m 11,9.5 c -1.103531,0 -2,0.896469 -2,2 0,1.103531 0.896469,2 2,2 1.103531,0 2,-0.896469 2,-2 0,-1.103531 -0.896469,-2 -2,-2 z"/>
 <path style="opacity:0.2;fill:none;stroke:#000000;stroke-width:2;stroke-linecap:round;stroke-linejoin:round" d="M 11,11.4999 19,3.4998997"/>
 <path style="fill:none;stroke:#f4f4f7;stroke-width:2;stroke-linecap:round;stroke-linejoin:round" d="M 11,11 19,3"/>
 <path style="opacity:0.2;fill:none;stroke:#000000;stroke-width:2;stroke-linecap:round;stroke-linejoin:round" d="m 7,8.4999 4,3"/>
 <path style="fill:none;stroke:#f4f4f7;stroke-width:2;stroke-linecap:round;stroke-linejoin:round" d="m 7,8 4,3"/>
 <path style="fill:#4f4f4f" d="m 11,9 c -1.103531,0 -2,0.896469 -2,2 0,1.103531 0.896469,2 2,2 1.103531,0 2,-0.896469 2,-2 0,-1.103531 -0.896469,-2 -2,-2 z"/>
</svg>

<svg xmlns="http://www.w3.org/2000/svg" width="22" height="22"><path style="opacity:.2" d="M11 1.5c-5.518 0-10 4.482-10 10s4.482 10 10 10 10-4.482 10-10-4.482-10-10-10z"/><path style="fill:#4f4f4f" d="M11 1C5.482 1 1 5.482 1 11s4.482 10 10 10 10-4.482 10-10S16.518 1 11 1z"/><path style="opacity:.1;fill:#f4f4f7" d="M11 1C5.482 1 1 5.482 1 11c0 .084.004.167.006.25C1.139 5.848 5.566 1.5 11 1.5s9.86 4.348 9.994 9.75c.002-.083.006-.166.006-.25 0-5.518-4.482-10-10-10z"/><path style="opacity:.2" d="M11 3.5c-4.414 0-8 3.586-8 8s3.586 8 8 8 8-3.586 8-8-3.586-8-8-8z"/><path style="fill:#ef8a24" d="M11 3c-4.414 0-8 3.586-8 8s3.586 8 8 8 8-3.586 8-8-3.586-8-8-8z"/><path style="opacity:.1;fill:#f4f4f7" d="M11 3c-4.414 0-8 3.586-8 8 0 .084.01.166.013.25C3.146 6.952 6.67 3.5 11 3.5s7.854 3.452 7.987 7.75c.003-.084.013-.166.013-.25 0-4.414-3.586-8-8-8z"/><path style="opacity:.2" d="M11 9.5c-1.104 0-2 .896-2 2s.896 2 2 2 2-.896 2-2-.896-2-2-2z"/><path style="opacity:.2;fill:none;stroke:#000;stroke-width:2;stroke-linecap:round;stroke-linejoin:round" d="m11 11.5 8-8"/><path style="fill:none;stroke:#f4f4f7;stroke-width:2;stroke-linecap:round;stroke-linejoin:round" d="m11 11 8-8"/><path style="opacity:.2;fill:none;stroke:#000;stroke-width:2;stroke-linecap:round;stroke-linejoin:round" d="m7 8.5 4 3"/><path style="fill:none;stroke:#f4f4f7;stroke-width:2;stroke-linecap:round;stroke-linejoin:round" d="m7 8 4 3"/><path style="fill:#4f4f4f" d="M11 9c-1.104 0-2 .896-2 2s.896 2 2 2 2-.896 2-2-.896-2-2-2z"/></svg>
